app/components/elements/SlideShow/Images/changeMindImage.svg

<svg width="200" height="200" viewBox="0 0 200 200" fill="none" xmlns="http://www.w3.org/2000/svg">
<g clip-path="url(#clip0_4990_1332)">
<path d="M21 34C21 29.0294 25.0294 25 30 25H152C156.971 25 161 29.0294 161 34V164.5C161 169.471 156.971 173.5 152 173.5H30C25.0294 173.5 21 169.471 21 164.5V34Z" fill="#CBDBFB"/>
<rect x="34" y="54" width="115" height="108" rx="5" fill="white"/>
<path d="M146 54H37C35.3431 54 34 55.3431 34 57V62H149V57C149 55.3431 147.657 54 146 54Z" fill="#7C91F6"/>
<path d="M87 70H45C43.3431 70 42 71.3431 42 73V75C42 76.6569 43.3431 78 45 78H87C88.6569 78 90 76.6569 90 75V73C90 71.3431 88.6569 70 87 70Z" fill="#FCCE9F" fill-opacity="0.5"/>
<path d="M116 82H45C43.3431 82 42 83.3431 42 85V87C42 88.6569 43.3431 90 45 90H116C117.657 90 119 88.6569 119 87V85C119 83.3431 117.657 82 116 82Z" fill="#FCCE9F" fill-opacity="0.5"/>
<rect width="115" height="9" rx="2" transform="matrix(1 0 0 -1 34 47)" fill="white"/>
<path d="M45 101L135.421 98.0674C136.671 98.0269 137.816 98.7667 138.292 99.9236L140.849 106.134C140.949 106.376 141 106.634 141 106.896V127C141 128.105 140.105 129 139 129H46C45.3705 129 44.7777 128.704 44.4 128.2L42.4848 125.646C42.1738 125.232 42.0359 124.713 42.1002 124.198L45 101Z" fill="#7C91F6"/>
<rect x="42" y="98" width="96" height="28" rx="2" fill="#271B46"/>
<path d="M119.858 114.82L121.574 115.348C121.538 115.432 121.514 115.528 121.514 115.636C121.514 115.972 121.958 116.224 122.618 116.224C123.398 116.224 123.914 115.792 123.914 114.988V114.16C123.566 114.652 123.062 114.904 122.378 114.904C121.574 114.904 120.89 114.628 120.326 114.076C119.762 113.524 119.474 112.792 119.474 111.892C119.474 110.98 119.75 110.248 120.29 109.708C120.842 109.156 121.526 108.88 122.33 108.88C123.014 108.88 123.542 109.108 123.914 109.564V109.048H125.714V114.484C125.714 116.512 124.622 117.616 122.642 117.616C120.722 117.616 119.69 116.812 119.69 115.564C119.69 115.276 119.75 115.024 119.858 114.82ZM123.578 110.86C123.326 110.608 123.002 110.488 122.63 110.488C122.258 110.488 121.934 110.62 121.67 110.872C121.406 111.124 121.274 111.46 121.274 111.904C121.274 112.336 121.406 112.672 121.67 112.924C121.934 113.176 122.258 113.296 122.63 113.296C123.002 113.296 123.326 113.176 123.578 112.936C123.83 112.684 123.962 112.348 123.962 111.904C123.962 111.46 123.83 111.112 123.578 110.86Z" fill="white"/>
<path d="M118.528 110.944V115H116.728V111.76C116.728 111.052 116.38 110.584 115.672 110.584C114.952 110.584 114.472 111.184 114.472 112.132V115H112.672V109.048H114.472V109.9C114.964 109.216 115.6 108.88 116.404 108.88C117.736 108.88 118.528 109.708 118.528 110.944Z" fill="white"/>
<path d="M111.331 115H109.531V109.048H111.331V115ZM111.403 108.352H109.459V106.432H111.403V108.352Z" fill="white"/>
<path d="M108.723 108.964L108.423 110.656C108.267 110.608 108.099 110.584 107.931 110.584C107.055 110.584 106.503 111.256 106.503 112.3V115H104.703V109.048H106.503V109.804C106.875 109.192 107.427 108.88 108.159 108.88C108.351 108.88 108.543 108.904 108.723 108.964Z" fill="white"/>
<path d="M103.785 115H101.961C101.793 114.832 101.697 114.58 101.673 114.232C101.229 114.856 100.629 115.168 99.849 115.168C98.541 115.168 97.749 114.388 97.749 113.272C97.749 112.132 98.673 111.52 100.077 111.292L101.589 111.052V110.944C101.589 110.368 101.277 110.08 100.665 110.08C100.125 110.08 99.753 110.284 99.753 110.62C99.753 110.656 99.753 110.692 99.765 110.728L98.133 111.28C98.073 111.04 98.037 110.848 98.037 110.704C98.037 110.164 98.289 109.72 98.781 109.384C99.285 109.048 99.909 108.88 100.665 108.88C102.477 108.88 103.389 109.636 103.389 111.136V113.524C103.389 114.124 103.521 114.616 103.785 115ZM100.221 113.776C100.629 113.776 100.953 113.632 101.205 113.344C101.457 113.044 101.589 112.708 101.589 112.324V112.216L100.317 112.432C99.777 112.516 99.501 112.756 99.501 113.152C99.501 113.488 99.789 113.776 100.221 113.776Z" fill="white"/>
<path d="M96.7578 110.944V115H94.9578V111.82C94.9578 111.064 94.5618 110.584 93.8418 110.584C93.1098 110.584 92.5578 111.208 92.5578 112.132V115H90.7578V106.6H92.5578V109.876C93.0738 109.216 93.7578 108.88 94.5978 108.88C95.9058 108.88 96.7578 109.684 96.7578 110.944Z" fill="white"/>
<path d="M86.8424 109.912C88.7024 110.308 89.5304 111.076 89.5304 112.468C89.5304 113.236 89.2544 113.884 88.6904 114.4C88.1264 114.916 87.3584 115.168 86.3744 115.168C84.4064 115.168 83.1824 114.256 82.6904 112.444L84.3344 111.652C84.6344 112.852 85.2344 113.464 86.3744 113.464C87.1304 113.464 87.6224 113.092 87.6224 112.6C87.6224 111.976 87.0344 111.604 85.7384 111.364C83.9744 111.016 83.0984 110.176 83.0984 108.844C83.0984 108.112 83.3744 107.536 83.9264 107.092C84.4784 106.648 85.2104 106.432 86.1224 106.432C87.7664 106.432 88.7984 107.14 89.3864 108.628L87.9344 109.492C87.5984 108.508 86.9864 108.016 86.0864 108.016C85.3664 108.016 84.8504 108.34 84.8504 108.82C84.8504 109.288 85.3904 109.612 86.8424 109.912Z" fill="white"/>
<path d="M73.843 117.448H72.043V109.048H73.843V109.732C74.311 109.168 74.971 108.88 75.811 108.88C76.543 108.88 77.179 109.156 77.719 109.72C78.271 110.272 78.547 111.04 78.547 112.024C78.547 112.996 78.271 113.764 77.707 114.328C77.143 114.892 76.507 115.168 75.775 115.168C74.971 115.168 74.335 114.904 73.843 114.376V117.448ZM76.291 110.944C76.003 110.668 75.655 110.536 75.235 110.536C74.827 110.536 74.479 110.668 74.179 110.944C73.891 111.22 73.747 111.58 73.747 112.024C73.747 112.468 73.891 112.828 74.179 113.104C74.479 113.38 74.827 113.512 75.235 113.512C75.655 113.512 76.003 113.38 76.291 113.104C76.579 112.828 76.723 112.468 76.723 112.024C76.723 111.58 76.579 111.22 76.291 110.944Z" fill="white"/>
<path d="M70.0352 109.72C70.6832 110.26 71.0072 111.028 71.0072 112.024C71.0072 113.02 70.6832 113.788 70.0352 114.34C69.3872 114.892 68.6072 115.168 67.6952 115.168C66.7952 115.168 66.0152 114.892 65.3672 114.34C64.7312 113.788 64.4072 113.02 64.4072 112.024C64.4072 111.028 64.7312 110.26 65.3672 109.708C66.0152 109.156 66.7952 108.88 67.6952 108.88C68.6072 108.88 69.3872 109.156 70.0352 109.72ZM66.6632 113.08C66.9512 113.332 67.2992 113.464 67.6952 113.464C68.1032 113.464 68.4512 113.332 68.7392 113.08C69.0392 112.816 69.1832 112.468 69.1832 112.024C69.1832 111.58 69.0392 111.232 68.7392 110.98C68.4512 110.716 68.1032 110.584 67.6952 110.584C67.2992 110.584 66.9512 110.716 66.6632 110.98C66.3752 111.232 66.2312 111.58 66.2312 112.024C66.2312 112.468 66.3752 112.816 66.6632 113.08Z" fill="white"/>
<path d="M60.7102 110.44H59.8462V109.048H60.7102V107.44H62.5102V109.048H63.7462V110.44H62.5102V112.792C62.5102 113.272 62.7502 113.56 63.1702 113.56C63.3742 113.56 63.5662 113.524 63.7342 113.464L63.9022 114.964C63.5422 115.096 63.1462 115.168 62.7022 115.168C62.1382 115.168 61.6702 115.012 61.2862 114.688C60.9022 114.364 60.7102 113.86 60.7102 113.152V110.44Z" fill="white"/>
<path d="M56.6198 109.912C58.4798 110.308 59.3078 111.076 59.3078 112.468C59.3078 113.236 59.0318 113.884 58.4678 114.4C57.9038 114.916 57.1358 115.168 56.1518 115.168C54.1838 115.168 52.9598 114.256 52.4678 112.444L54.1118 111.652C54.4118 112.852 55.0118 113.464 56.1518 113.464C56.9078 113.464 57.3998 113.092 57.3998 112.6C57.3998 111.976 56.8118 111.604 55.5158 111.364C53.7518 111.016 52.8758 110.176 52.8758 108.844C52.8758 108.112 53.1518 107.536 53.7038 107.092C54.2558 106.648 54.9878 106.432 55.8998 106.432C57.5438 106.432 58.5758 107.14 59.1638 108.628L57.7118 109.492C57.3758 108.508 56.7638 108.016 55.8638 108.016C55.1438 108.016 54.6278 108.34 54.6278 108.82C54.6278 109.288 55.1678 109.612 56.6198 109.912Z" fill="white"/>
<path d="M51 118.5L51.5522 118.279C52.8053 117.778 54.2005 117.763 55.4643 118.237L55.7173 118.331C56.8614 118.761 58.1269 118.731 59.25 118.25V118.25C60.3731 117.769 61.6386 117.739 62.7827 118.169L63.1506 118.306C64.343 118.754 65.657 118.754 66.8494 118.306L67.12 118.205C68.3188 117.755 69.6507 117.825 70.7959 118.398L71.0356 118.518C72.2628 119.131 73.7156 119.091 74.9069 118.41L75.1272 118.284C76.0007 117.785 77.0455 117.682 78 118V118" stroke="#B0BDFF" stroke-linecap="round"/>
<path d="M157.709 179.437L159.449 179.731C163.085 180.347 166.397 182.197 168.829 184.97L169.732 186C175.684 192.787 186.264 192.737 192.152 185.895C196.801 180.491 196.955 172.547 192.518 166.968L190.951 164.996C189.352 162.986 188.205 160.655 187.588 158.162L186.185 152.499C184.928 147.428 182.792 142.617 179.874 138.284L175.159 131.283L173.793 129.765C173.187 129.092 172.247 128.828 171.379 129.087C170.944 129.217 170.555 129.472 170.261 129.819L167.796 132.732C167.763 132.77 167.705 132.775 167.666 132.742L165.375 130.803C164.643 130.183 163.676 129.918 162.731 130.076C161.971 130.204 161.281 130.596 160.783 131.184L158.627 133.731C158.6 133.764 158.552 133.771 158.517 133.748L155.995 132.111C155.295 131.656 154.426 131.545 153.634 131.81C152.865 132.067 152.249 132.652 151.953 133.407L151.116 135.537C151.028 135.762 150.862 135.947 150.649 136.06L150.56 136.108C149.939 136.437 149.17 136.245 148.776 135.663L142.724 126.713L134 114.827C132.99 113.45 131.123 113.023 129.614 113.823C127.936 114.714 127.297 116.796 128.188 118.475L135.594 132.432L139.16 139.826C140.003 141.574 140.706 143.386 141.262 145.246C141.952 147.556 142.869 149.791 143.999 151.921L145.106 154.007L146.252 157.096C146.45 157.63 145.744 158.027 145.391 157.58L144.397 156.319L138.332 146.575C138.002 146.044 137.548 145.601 137.009 145.285L135.709 144.521C134.012 143.523 131.841 144.527 131.502 146.466C131.411 146.986 131.467 147.522 131.666 148.011L134.991 156.222C135.69 157.949 136.531 159.614 137.505 161.202L141.539 167.779C142.649 169.587 143.978 171.251 145.496 172.733L146.547 173.759C149.604 176.742 153.498 178.723 157.709 179.437Z" fill="#DBBCAA"/>
<path d="M92.5794 139L83.5 147.597M100.04 139L88.7593 157M107.5 139L103.373 154.313" stroke="#FCCE9F" stroke-width="2" stroke-linecap="round"/>
<circle cx="142" cy="43" r="25" fill="#92A4F7"/>
<path d="M152.227 49.5341V47.2636C152.227 44.2813 149.81 41.8636 146.827 41.8636H137.173C134.191 41.8636 131.773 44.2813 131.773 47.2636V49.5341" stroke="white" stroke-width="2.7" stroke-linecap="round"/>
<rect x="136.886" y="31.6364" width="10.2273" height="10.2273" rx="5.11364" stroke="white" stroke-width="2.7"/>
<path d="M131.773 49.5341C134.332 51.1079 137.967 52.0909 142 52.0909C146.033 52.0909 149.668 51.1079 152.227 49.5341" stroke="white" stroke-width="2.7" stroke-linecap="round"/>
</g>
<defs>
<clipPath id="clip0_4990_1332">
<rect width="200" height="200" fill="white"/>
</clipPath>
</defs>
</svg>

<svg xmlns="http://www.w3.org/2000/svg" width="200" height="200" fill="none"><g clip-path="url(#a)"><path fill="#CBDBFB" d="M21 34a9 9 0 0 1 9-9h122a9 9 0 0 1 9 9v130.5a9 9 0 0 1-9 9H30a9 9 0 0 1-9-9V34Z"/><rect width="115" height="108" x="34" y="54" fill="#fff" rx="5"/><path fill="#7C91F6" d="M146 54H37a3 3 0 0 0-3 3v5h115v-5a3 3 0 0 0-3-3Z"/><path fill="#FCCE9F" fill-opacity=".5" d="M87 70H45a3 3 0 0 0-3 3v2a3 3 0 0 0 3 3h42a3 3 0 0 0 3-3v-2a3 3 0 0 0-3-3ZM116 82H45a3 3 0 0 0-3 3v2a3 3 0 0 0 3 3h71a3 3 0 0 0 3-3v-2a3 3 0 0 0-3-3Z"/><rect width="115" height="9" fill="#fff" rx="2" transform="matrix(1 0 0 -1 34 47)"/><path fill="#7C91F6" d="m45 101 90.421-2.933a3 3 0 0 1 2.871 1.857l2.557 6.21c.1.242.151.5.151.762V127a2 2 0 0 1-2 2H46c-.63 0-1.222-.296-1.6-.8l-1.915-2.554a1.998 1.998 0 0 1-.385-1.448L45 101Z"/><rect width="96" height="28" x="42" y="98" fill="#271B46" rx="2"/><path fill="#fff" d="m119.858 114.82 1.716.528a.725.725 0 0 0-.06.288c0 .336.444.588 1.104.588.78 0 1.296-.432 1.296-1.236v-.828c-.348.492-.852.744-1.536.744-.804 0-1.488-.276-2.052-.828-.564-.552-.852-1.284-.852-2.184 0-.912.276-1.644.816-2.184.552-.552 1.236-.828 2.04-.828.684 0 1.212.228 1.584.684v-.516h1.8v5.436c0 2.028-1.092 3.132-3.072 3.132-1.92 0-2.952-.804-2.952-2.052 0-.288.06-.54.168-.744Zm3.72-3.96c-.252-.252-.576-.372-.948-.372s-.696.132-.96.384-.396.588-.396 1.032c0 .432.132.768.396 1.02s.588.372.96.372.696-.12.948-.36c.252-.252.384-.588.384-1.032 0-.444-.132-.792-.384-1.044ZM118.528 110.944V115h-1.8v-3.24c0-.708-.348-1.176-1.056-1.176-.72 0-1.2.6-1.2 1.548V115h-1.8v-5.952h1.8v.852c.492-.684 1.128-1.02 1.932-1.02 1.332 0 2.124.828 2.124 2.064ZM111.331 115h-1.8v-5.952h1.8V115Zm.072-6.648h-1.944v-1.92h1.944v1.92ZM108.723 108.964l-.3 1.692a1.683 1.683 0 0 0-.492-.072c-.876 0-1.428.672-1.428 1.716v2.7h-1.8v-5.952h1.8v.756c.372-.612.924-.924 1.656-.924.192 0 .384.024.564.084ZM103.785 115h-1.824c-.168-.168-.264-.42-.288-.768-.444.624-1.044.936-1.824.936-1.308 0-2.1-.78-2.1-1.896 0-1.14.924-1.752 2.328-1.98l1.512-.24v-.108c0-.576-.312-.864-.924-.864-.54 0-.912.204-.912.54 0 .036 0 .072.012.108l-1.632.552a2.58 2.58 0 0 1-.096-.576c0-.54.252-.984.744-1.32.504-.336 1.128-.504 1.884-.504 1.812 0 2.724.756 2.724 2.256v2.388c0 .6.132 1.092.396 1.476Zm-3.564-1.224c.408 0 .732-.144.984-.432.252-.3.384-.636.384-1.02v-.108l-1.272.216c-.54.084-.816.324-.816.72 0 .336.288.624.72.624ZM96.758 110.944V115h-1.8v-3.18c0-.756-.396-1.236-1.116-1.236-.732 0-1.284.624-1.284 1.548V115h-1.8v-8.4h1.8v3.276c.516-.66 1.2-.996 2.04-.996 1.308 0 2.16.804 2.16 2.064ZM86.842 109.912c1.86.396 2.688 1.164 2.688 2.556 0 .768-.276 1.416-.84 1.932s-1.332.768-2.316.768c-1.968 0-3.192-.912-3.684-2.724l1.644-.792c.3 1.2.9 1.812 2.04 1.812.756 0 1.248-.372 1.248-.864 0-.624-.588-.996-1.884-1.236-1.764-.348-2.64-1.188-2.64-2.52 0-.732.276-1.308.828-1.752.552-.444 1.284-.66 2.196-.66 1.644 0 2.676.708 3.264 2.196l-1.452.864c-.336-.984-.948-1.476-1.848-1.476-.72 0-1.236.324-1.236.804 0 .468.54.792 1.992 1.092ZM73.843 117.448h-1.8v-8.4h1.8v.684c.468-.564 1.128-.852 1.968-.852.732 0 1.368.276 1.908.84.552.552.828 1.32.828 2.304 0 .972-.276 1.74-.84 2.304-.564.564-1.2.84-1.932.84-.804 0-1.44-.264-1.932-.792v3.072Zm2.448-6.504c-.288-.276-.636-.408-1.056-.408-.408 0-.756.132-1.056.408-.288.276-.432.636-.432 1.08 0 .444.144.804.432 1.08.3.276.648.408 1.056.408.42 0 .768-.132 1.056-.408.288-.276.432-.636.432-1.08 0-.444-.144-.804-.432-1.08ZM70.035 109.72c.648.54.972 1.308.972 2.304 0 .996-.324 1.764-.972 2.316-.648.552-1.428.828-2.34.828-.9 0-1.68-.276-2.328-.828-.636-.552-.96-1.32-.96-2.316 0-.996.324-1.764.96-2.316.648-.552 1.428-.828 2.328-.828.912 0 1.692.276 2.34.84Zm-3.372 3.36c.288.252.636.384 1.032.384.408 0 .756-.132 1.044-.384.3-.264.444-.612.444-1.056 0-.444-.144-.792-.444-1.044a1.49 1.49 0 0 0-1.044-.396c-.396 0-.744.132-1.032.396-.288.252-.432.6-.432 1.044 0 .444.144.792.432 1.056ZM60.71 110.44h-.864v-1.392h.864v-1.608h1.8v1.608h1.236v1.392H62.51v2.352c0 .48.24.768.66.768.204 0 .396-.036.564-.096l.168 1.5c-.36.132-.756.204-1.2.204-.564 0-1.032-.156-1.416-.48-.384-.324-.576-.828-.576-1.536v-2.712ZM56.62 109.912c1.86.396 2.688 1.164 2.688 2.556 0 .768-.276 1.416-.84 1.932s-1.332.768-2.316.768c-1.968 0-3.192-.912-3.684-2.724l1.644-.792c.3 1.2.9 1.812 2.04 1.812.756 0 1.248-.372 1.248-.864 0-.624-.588-.996-1.884-1.236-1.764-.348-2.64-1.188-2.64-2.52 0-.732.276-1.308.828-1.752.552-.444 1.284-.66 2.196-.66 1.644 0 2.676.708 3.264 2.196l-1.452.864c-.336-.984-.948-1.476-1.848-1.476-.72 0-1.236.324-1.236.804 0 .468.54.792 1.992 1.092Z"/><path stroke="#B0BDFF" stroke-linecap="round" d="m51 118.5.552-.221a5.415 5.415 0 0 1 3.912-.042l.253.094c1.144.43 2.41.4 3.533-.081v0a4.738 4.738 0 0 1 3.533-.081l.368.137a5.258 5.258 0 0 0 3.698 0l.271-.101a4.601 4.601 0 0 1 3.676.193l.24.12a4.105 4.105 0 0 0 3.87-.108l.221-.126A3.537 3.537 0 0 1 78 118v0"/><path fill="#DBBCAA" d="m157.709 179.437 1.74.294a16.04 16.04 0 0 1 9.38 5.239l.903 1.03c5.952 6.787 16.532 6.737 22.42-.105a14.849 14.849 0 0 0 .366-18.927l-1.567-1.972a17.876 17.876 0 0 1-3.363-6.834l-1.403-5.663a44.703 44.703 0 0 0-6.311-14.215l-4.715-7.001-1.366-1.518a2.346 2.346 0 0 0-3.532.054l-2.465 2.913a.093.093 0 0 1-.13.01l-2.291-1.939a3.259 3.259 0 0 0-4.592.381l-2.156 2.547a.084.084 0 0 1-.11.017l-2.522-1.637a2.738 2.738 0 0 0-4.042 1.296l-.837 2.13c-.088.225-.254.41-.467.523l-.089.048a1.376 1.376 0 0 1-1.784-.445l-6.052-8.95L134 114.827a3.44 3.44 0 0 0-5.812 3.648l7.406 13.957 3.566 7.394a36.623 36.623 0 0 1 2.102 5.42 36.583 36.583 0 0 0 2.737 6.675l1.107 2.086 1.146 3.089c.198.534-.508.931-.861.484l-.994-1.261-6.065-9.744a3.852 3.852 0 0 0-1.323-1.29l-1.3-.764c-1.697-.998-3.868.006-4.207 1.945a2.814 2.814 0 0 0 .164 1.545l3.325 8.211a33.724 33.724 0 0 0 2.514 4.98l4.034 6.577a25.756 25.756 0 0 0 3.957 4.954l1.051 1.026a21.013 21.013 0 0 0 11.162 5.678Z"/><path stroke="#FCCE9F" stroke-linecap="round" stroke-width="2" d="m92.58 139-9.08 8.597M100.04 139l-11.28 18m18.74-18-4.127 15.313"/><circle cx="142" cy="43" r="25" fill="#92A4F7"/><path stroke="#fff" stroke-linecap="round" stroke-width="2.7" d="M152.227 49.534v-2.27a5.4 5.4 0 0 0-5.4-5.4h-9.654a5.4 5.4 0 0 0-5.4 5.4v2.27"/><rect width="10.227" height="10.227" x="136.886" y="31.636" stroke="#fff" stroke-width="2.7" rx="5.114"/><path stroke="#fff" stroke-linecap="round" stroke-width="2.7" d="M131.773 49.534c2.559 1.574 6.194 2.557 10.227 2.557s7.668-.983 10.227-2.557"/></g><defs><clipPath id="a"><path fill="#fff" d="M0 0h200v200H0z"/></clipPath></defs></svg>
